images/snap.svg

<svg width="84" height="27" viewBox="0 0 84 27" fill="none" xmlns="http://www.w3.org/2000/svg">
<g id="snap">
<path id="Path" d="M8.85249 19.42C7.74416 19.42 6.67666 19.2917 5.64999 19.035C4.62333 18.7783 3.70458 18.3992 2.89374 17.8975C2.08291 17.3958 1.44124 16.7688 0.968745 16.0163C0.496245 15.2638 0.259995 14.3858 0.259995 13.3825C0.259995 13.3358 0.259995 13.2804 0.259995 13.2163C0.259995 13.1521 0.259995 13.1025 0.259995 13.0675H5.64999C5.64999 13.1025 5.64999 13.1404 5.64999 13.1813C5.64999 13.2221 5.64999 13.2658 5.64999 13.3125C5.64999 13.9892 5.95041 14.485 6.55124 14.8C7.15208 15.115 7.96583 15.2725 8.99249 15.2725C9.52916 15.2725 10.0454 15.2171 10.5412 15.1063C11.0371 14.9954 11.4454 14.8146 11.7662 14.5638C12.0871 14.3129 12.2475 13.995 12.2475 13.61C12.2475 12.9917 11.9062 12.5542 11.2237 12.2975C10.5412 12.0408 9.44749 11.7842 7.94249 11.5275C7.09083 11.3875 6.22749 11.1892 5.35249 10.9325C4.47749 10.6758 3.67249 10.3346 2.93749 9.90875C2.20249 9.48292 1.61333 8.94042 1.16999 8.28125C0.726661 7.62209 0.504995 6.82 0.504995 5.875C0.504995 4.615 0.887078 3.55334 1.65124 2.69C2.41541 1.82667 3.43333 1.17334 4.70499 0.730002C5.97666 0.286669 7.37666 0.0650024 8.90499 0.0650024C10.3633 0.0650024 11.7225 0.307086 12.9825 0.791252C14.2425 1.27542 15.2633 1.96959 16.045 2.87375C16.8267 3.77792 17.2175 4.86584 17.2175 6.1375C17.2175 6.16084 17.2175 6.19584 17.2175 6.2425C17.2175 6.28917 17.2175 6.33584 17.2175 6.3825H11.88C11.88 6.33584 11.88 6.295 11.88 6.26C11.88 6.225 11.88 6.19584 11.88 6.1725C11.88 5.70584 11.7312 5.32667 11.4337 5.035C11.1362 4.74334 10.76 4.52459 10.305 4.37875C9.84999 4.23292 9.37749 4.16 8.88749 4.16C8.44416 4.16 7.98624 4.20959 7.51374 4.30875C7.04124 4.40792 6.64166 4.57125 6.31499 4.79875C5.98833 5.02625 5.82499 5.34417 5.82499 5.7525C5.82499 6.14917 5.99999 6.47292 6.34999 6.72375C6.69999 6.97459 7.18999 7.17875 7.81999 7.33625C8.44999 7.49375 9.17916 7.6425 10.0075 7.7825C10.7892 7.91084 11.6146 8.08875 12.4837 8.31625C13.3529 8.54375 14.1696 8.86459 14.9337 9.27875C15.6979 9.69292 16.3162 10.2354 16.7887 10.9063C17.2612 11.5771 17.4975 12.4258 17.4975 13.4525C17.4975 14.5142 17.2525 15.4242 16.7625 16.1825C16.2725 16.9408 15.6104 17.5563 14.7762 18.0288C13.9421 18.5013 13.0146 18.8513 11.9937 19.0788C10.9729 19.3063 9.92583 19.42 8.85249 19.42Z" fill="#151515"/>
<path id="Shape" fill-rule="evenodd" clip-rule="evenodd" d="M33.4789 11.1075V19H38.8864V11.615V9.3575V7.3625C38.8864 5.90417 38.6443 4.62959 38.1601 3.53875C37.676 2.44792 36.941 1.59625 35.9551 0.983752C34.9693 0.371252 33.7122 0.0650024 32.1839 0.0650024C30.7256 0.0650024 29.3985 0.409169 28.2026 1.0975C27.2486 1.64666 26.4523 2.36291 25.8139 3.24623V0.415002H20.3889V19H25.8139V9.27C25.8139 8.37167 25.9772 7.57834 26.3039 6.89C26.6306 6.20167 27.1001 5.665 27.7126 5.28C28.3251 4.895 29.0514 4.7025 29.8914 4.7025C30.8597 4.7025 31.6006 4.895 32.1139 5.28C32.6272 5.665 32.9831 6.17542 33.1814 6.81125C33.3797 7.44709 33.4789 8.15 33.4789 8.92V9.9V11.1075ZM25.8139 9.27V3.24623C25.6521 3.47009 25.5004 3.70468 25.3589 3.95C24.6589 5.16334 24.3089 6.575 24.3089 8.185L25.8139 9.27Z" fill="#151515"/>
<path id="Shape_2" fill-rule="evenodd" clip-rule="evenodd" d="M45.164 18.7375C46.2199 19.1692 47.4244 19.385 48.7778 19.385C49.9328 19.385 51.009 19.2363 52.0065 18.9388C53.004 18.6413 53.8674 18.2154 54.5965 17.6613C54.8539 17.4656 55.0862 17.2566 55.2935 17.034C55.3419 17.2233 55.3983 17.412 55.4628 17.6C55.5794 17.9383 55.7224 18.2358 55.8915 18.4925C56.0607 18.7492 56.1861 18.9183 56.2678 19H61.6053C61.4886 18.895 61.3428 18.7083 61.1678 18.44C60.9928 18.1717 60.8469 17.8333 60.7303 17.425C60.6253 17.0633 60.5582 16.6638 60.529 16.2263C60.4999 15.7888 60.4853 15.3308 60.4853 14.8525V8.2725V7.54625V6.82C60.4853 5.29167 60.0624 4.03167 59.2165 3.04C58.3707 2.04834 57.2536 1.30459 55.8653 0.808752C54.4769 0.312919 52.9661 0.0650024 51.3328 0.0650024C49.5828 0.0650024 48.0136 0.330419 46.6253 0.861252C45.2369 1.39209 44.1374 2.17084 43.3265 3.1975C42.5157 4.22417 42.1103 5.48417 42.1103 6.9775H47.4478C47.4478 6.05584 47.7774 5.37042 48.4365 4.92125C49.0957 4.47209 50.0494 4.2475 51.2978 4.2475C52.4761 4.2475 53.3949 4.44584 54.054 4.8425C54.7132 5.23917 55.0428 5.78167 55.0428 6.47V6.49625V6.505C55.0428 6.91334 54.6549 7.19917 53.879 7.3625C53.1032 7.52584 51.6944 7.70667 49.6528 7.905C48.2528 8.045 46.9549 8.33375 45.759 8.77125C44.5632 9.20875 43.6036 9.84167 42.8803 10.67C42.1569 11.4983 41.7953 12.5717 41.7953 13.89C41.7953 15.0567 42.0928 16.0483 42.6878 16.865C43.2828 17.6817 44.1082 18.3058 45.164 18.7375ZM52.619 14.8613C51.8782 15.1704 51.0819 15.325 50.2303 15.325C49.2386 15.325 48.4919 15.1646 47.9903 14.8438C47.4886 14.5229 47.2378 14.0417 47.2378 13.4C47.2378 12.7233 47.5324 12.2421 48.1215 11.9563C48.7107 11.6704 49.6003 11.4692 50.7903 11.3525C51.7936 11.2475 52.7999 11.1046 53.809 10.9238C54.2749 10.8403 54.7153 10.7462 55.1303 10.6416V10.7925C55.1303 11.8658 54.8969 12.735 54.4303 13.4C53.9636 14.065 53.3599 14.5521 52.619 14.8613ZM55.1303 10.6416C55.6141 10.5196 56.0633 10.3832 56.4778 10.2325L55.1303 8.92V10.6416Z" fill="#151515"/>
<path id="Shape_3" fill-rule="evenodd" clip-rule="evenodd" d="M71.1117 18.2388C72.3367 19.0263 73.6842 19.42 75.1542 19.42C76.6942 19.42 78.1175 19.0496 79.4242 18.3088C80.7308 17.5679 81.7808 16.4683 82.5742 15.01C83.3675 13.5517 83.7642 11.755 83.7642 9.62C83.7642 7.57834 83.3587 5.84584 82.5479 4.4225C81.7371 2.99917 80.6783 1.91709 79.3717 1.17625C78.065 0.435419 76.6592 0.0650024 75.1542 0.0650024C73.6842 0.0650024 72.3367 0.438336 71.1117 1.185C70.4809 1.56949 69.915 2.0259 69.4142 2.55423V0.415002H63.9717V26.6475H69.4142V16.8041C69.915 17.355 70.4809 17.8332 71.1117 18.2388ZM69.4142 10.215L67.0692 10.2675V10.4163V10.5475C67.0692 12.2158 67.4367 13.7179 68.1717 15.0538C68.5282 15.7017 68.9424 16.2852 69.4142 16.8041V10.425C69.4142 11.2883 69.6242 12.0438 70.0442 12.6913C70.4642 13.3388 71.0067 13.8375 71.6717 14.1875C72.3367 14.5375 73.0308 14.7125 73.7542 14.7125C74.9442 14.7125 75.9796 14.3013 76.8604 13.4788C77.7412 12.6563 78.1817 11.37 78.1817 9.62C78.1817 7.87 77.7442 6.59542 76.8692 5.79625C75.9942 4.99709 74.9558 4.5975 73.7542 4.5975C73.0308 4.5975 72.3367 4.76959 71.6717 5.11375C71.0067 5.45792 70.4642 5.945 70.0442 6.575C69.6242 7.205 69.4142 7.9575 69.4142 8.8325V2.55423C68.9424 3.05192 68.5282 3.61343 68.1717 4.23875C67.4367 5.52792 67.0692 7.0125 67.0692 8.6925L69.4142 8.8325V10.215Z" fill="#151515"/>
</g>
</svg>

<svg xmlns="http://www.w3.org/2000/svg" width="84" height="27" fill="none"><g fill="#151515"><path d="M8.852 19.42c-1.108 0-2.175-.128-3.202-.385a9.648 9.648 0 0 1-2.756-1.137c-.811-.502-1.453-1.13-1.925-1.882-.473-.752-.709-1.63-.709-2.633v-.315h5.39v.245c0 .676.3 1.172.901 1.487.601.315 1.415.473 2.441.473.537 0 1.053-.056 1.55-.167.495-.11.903-.291 1.224-.542.321-.251.482-.569.482-.954 0-.618-.342-1.056-1.024-1.313-.683-.256-1.777-.513-3.282-.77a21.71 21.71 0 0 1-2.59-.595A10.938 10.938 0 0 1 2.937 9.91 5.28 5.28 0 0 1 1.17 8.28C.727 7.622.505 6.82.505 5.875c0-1.26.382-2.322 1.146-3.185.764-.863 1.782-1.517 3.054-1.96C5.977.287 7.377.065 8.905.065c1.458 0 2.818.242 4.078.726 1.26.484 2.28 1.179 3.062 2.083.782.904 1.172 1.992 1.172 3.264v.244H11.88v-.209c0-.467-.149-.846-.446-1.138a2.804 2.804 0 0 0-1.129-.656 4.616 4.616 0 0 0-1.418-.219c-.443 0-.9.05-1.373.149-.473.099-.872.262-1.199.49-.327.227-.49.545-.49.954 0 .396.175.72.525.97.35.252.84.456 1.47.613.63.158 1.36.306 2.188.446.781.129 1.607.307 2.476.534.869.228 1.686.549 2.45.963a5.339 5.339 0 0 1 1.855 1.627c.472.671.708 1.52.708 2.546 0 1.062-.244 1.972-.735 2.73a5.607 5.607 0 0 1-1.986 1.847c-.834.472-1.761.822-2.782 1.05-1.021.227-2.068.341-3.142.341Z"/><path fill-rule="evenodd" d="M33.479 11.107V19h5.407V7.363c0-1.459-.242-2.733-.726-3.824-.484-1.091-1.219-1.943-2.205-2.555C34.97.37 33.712.065 32.184.065c-1.458 0-2.785.344-3.981 1.032a7.575 7.575 0 0 0-2.39 2.15V.414H20.39V19h5.425V9.27c0-.898.163-1.692.49-2.38a3.755 3.755 0 0 1 1.409-1.61c.612-.385 1.338-.578 2.178-.578.969 0 1.71.193 2.223.578.513.385.87.895 1.067 1.531a7.06 7.06 0 0 1 .298 2.109V11.107ZM25.814 9.27V3.246a8.162 8.162 0 0 0-.455.704c-.7 1.213-1.05 2.625-1.05 4.235l1.505 1.085ZM45.164 18.738c1.056.431 2.26.647 3.614.647 1.155 0 2.231-.149 3.229-.446.997-.298 1.86-.724 2.59-1.278.257-.195.49-.404.697-.627.048.19.104.378.169.566.116.338.26.636.428.892.17.257.295.426.377.508h5.337c-.116-.105-.262-.292-.437-.56a3.736 3.736 0 0 1-.438-1.015 5.649 5.649 0 0 1-.201-1.199c-.03-.437-.044-.895-.044-1.373V6.82c0-1.528-.423-2.788-1.268-3.78-.846-.992-1.963-1.735-3.352-2.231-1.388-.496-2.899-.744-4.532-.744-1.75 0-3.32.265-4.708.796-1.388.531-2.488 1.31-3.298 2.337-.811 1.026-1.217 2.286-1.217 3.78h5.338c0-.922.33-1.608.989-2.057.659-.449 1.612-.674 2.86-.674 1.18 0 2.098.199 2.757.596.66.396.989.939.989 1.627V6.505c0 .408-.388.694-1.164.857-.776.164-2.185.345-4.226.543-1.4.14-2.698.429-3.894.866-1.196.438-2.155 1.07-2.879 1.899-.723.828-1.085 1.902-1.085 3.22 0 1.167.298 2.158.893 2.975.595.817 1.42 1.44 2.476 1.873Zm7.455-3.877a6.14 6.14 0 0 1-2.389.464c-.991 0-1.738-.16-2.24-.481-.501-.321-.752-.802-.752-1.444 0-.677.294-1.158.883-1.444.59-.286 1.48-.487 2.67-.604a41.758 41.758 0 0 0 3.018-.428c.466-.084.906-.178 1.321-.282v.15c0 1.074-.233 1.943-.7 2.608a4.104 4.104 0 0 1-1.811 1.461Zm2.511-4.22c.484-.121.933-.258 1.348-.409L55.13 8.92v1.722ZM71.112 18.239a7.324 7.324 0 0 0 4.042 1.181c1.54 0 2.964-.37 4.27-1.111 1.307-.741 2.357-1.84 3.15-3.299.794-1.458 1.19-3.255 1.19-5.39 0-2.042-.405-3.774-1.216-5.197-.81-1.424-1.87-2.506-3.176-3.247A8.412 8.412 0 0 0 75.154.065c-1.47 0-2.817.373-4.042 1.12-.631.384-1.197.84-1.698 1.37V.414h-5.442v26.232h5.442v-9.843c.501.551 1.067 1.03 1.698 1.435Zm-1.698-8.024-2.345.053v.279c0 1.669.368 3.17 1.103 4.507.356.648.77 1.231 1.242 1.75v-6.379c0 .863.21 1.619.63 2.266.42.648.963 1.146 1.628 1.496.665.35 1.359.526 2.082.526 1.19 0 2.226-.412 3.106-1.234.881-.823 1.322-2.109 1.322-3.859s-.438-3.025-1.313-3.824c-.875-.799-1.913-1.199-3.115-1.199-.723 0-1.417.173-2.082.517a4.308 4.308 0 0 0-1.628 1.461c-.42.63-.63 1.382-.63 2.257V2.554a8.695 8.695 0 0 0-1.242 1.685c-.735 1.289-1.103 2.774-1.103 4.454l2.345.14v1.382Z" clip-rule="evenodd"/></g></svg>
